Systematic/src/svg/Sharp - X68000-content.svg

<svg xmlns="http://www.w3.org/2000/svg" xml:space="preserve" width="330.667" height="330.667"><defs><clipPath id="a" clipPathUnits="userSpaceOnUse"><path d="M0 256h256V0H0Z"/></clipPath><clipPath id="b" clipPathUnits="userSpaceOnUse"><path d="M4 252h248V4H4Z"/></clipPath></defs><g clip-path="url(#a)" transform="matrix(1.33333 0 0 -1.33333 -5.333 336)"><g clip-path="url(#b)" style="opacity:.5"><path d="M0 0v-236c0-6.617 5.383-12 12-12h224c6.617 0 12 5.383 12 12V0Z" style="fill:#fff;fill-opacity:1;fill-rule:nonzero;stroke:none" transform="translate(4 252)"/></g><path d="M0 0c-17.673 0-32 14.327-32 32s14.327 32 32 32 32-14.327 32-32S17.673 0 0 0m116 148h-232V-80a4 4 0 0 1 4-4h84a4 4 0 0 0 8 0h40a4 4 0 0 0 8 0h84a4 4 0 0 1 4 4z" style="fill:#191919;fill-opacity:1;fill-rule:nonzero;stroke:none" transform="translate(128 96)"/><path d="M0 0h-200a4 4 0 0 0-4 4v44a4 4 0 0 0 4 4H0a4 4 0 0 0 4-4V4a4 4 0 0 0-4-4" style="fill:#fff;fill-opacity:1;fill-rule:nonzero;stroke:none" transform="translate(228 180)"/><path d="M0 0c-6.627 0-12 5.373-12 12v36c0 6.627 5.373 12 12 12s12-5.373 12-12V12C12 5.373 6.627 0 0 0" style="fill:#333;fill-opacity:1;fill-rule:nonzero;stroke:none" transform="translate(128 20)"/><path d="M0 0a6 6 0 0 0-12 0A6 6 0 0 0 0 0" style="fill:#333;fill-opacity:1;fill-rule:nonzero;stroke:none" transform="translate(176 118)"/><path d="M0 0c-13.255 0-24 10.745-24 24s10.745 24 24 24 24-10.745 24-24S13.255 0 0 0m0 56c-17.673 0-32-14.327-32-32S-17.673-8 0-8 32 6.327 32 24 17.673 56 0 56" style="fill:#262626;fill-opacity:1;fill-rule:nonzero;stroke:none" transform="translate(128 104)"/><path d="M0 0c-18.778 0-34-15.222-34-34s15.222-34 34-34 34 15.223 34 34S18.777 0 0 0m0-4c16.542 0 30-13.458 30-30S16.542-64 0-64s-30 13.458-30 30S-16.542-4 0-4" style="fill:#333;fill-opacity:1;fill-rule:nonzero;stroke:none" transform="translate(128 162)"/></g></svg>

<?xml version="1.0" encoding="UTF-8" standalone="no"?>
<svg
   xmlns:dc="http://purl.org/dc/elements/1.1/"
   xmlns:cc="http://creativecommons.org/ns#"
   xmlns:rdf="http://www.w3.org/1999/02/22-rdf-syntax-ns#"
   xmlns:svg="http://www.w3.org/2000/svg"
   xmlns="http://www.w3.org/2000/svg"
   viewBox="0 0 330.66665 330.66665"
   height="330.66666"
   width="330.66666"
   xml:space="preserve"
   id="svg2"
   version="1.1"><metadata
     id="metadata8"><rdf:RDF><cc:Work
         rdf:about=""><dc:format>image/svg+xml</dc:format><dc:type
           rdf:resource="http://purl.org/dc/dcmitype/StillImage" /></cc:Work></rdf:RDF></metadata><defs
     id="defs6"><clipPath
       id="clipPath18"
       clipPathUnits="userSpaceOnUse"><path
         id="path16"
         d="M 0,256 H 256 V 0 H 0 Z" /></clipPath><clipPath
       id="clipPath26"
       clipPathUnits="userSpaceOnUse"><path
         id="path24"
         d="M 4,252 H 252 V 4 H 4 Z" /></clipPath></defs><g
     transform="matrix(1.3333333,0,0,-1.3333333,-5.3333332,335.99999)"
     id="g10"><g
       id="g12"><g
         clip-path="url(#clipPath18)"
         id="g14"><g
           id="g20"><g
             id="g22" /><g
             id="g34"><g
               style="opacity:0.5"
               id="g32"
               clip-path="url(#clipPath26)"><g
                 id="g30"
                 transform="translate(4,252)"><path
                   id="path28"
                   style="fill:#ffffff;fill-opacity:1;fill-rule:nonzero;stroke:none"
                   d="m 0,0 v -236 c 0,-6.617 5.383,-12 12,-12 h 224 c 6.617,0 12,5.383 12,12 V 0 Z" /></g></g></g></g><g
           transform="translate(128,96)"
           id="g36"><path
             id="path38"
             style="fill:#191919;fill-opacity:1;fill-rule:nonzero;stroke:none"
             d="M 0,0 C -17.673,0 -32,14.327 -32,32 -32,49.673 -17.673,64 0,64 17.673,64 32,49.673 32,32 32,14.327 17.673,0 0,0 M 116,148 H -116 V -80 c 0,-2.209 1.791,-4 4,-4 h 84 c 0,2.209 1.791,4 4,4 2.209,0 4,-1.791 4,-4 h 40 c 0,2.209 1.791,4 4,4 2.209,0 4,-1.791 4,-4 h 84 c 2.209,0 4,1.791 4,4 z" /></g><g
           transform="translate(228,180)"
           id="g40"><path
             id="path42"
             style="fill:#ffffff;fill-opacity:1;fill-rule:nonzero;stroke:none"
             d="m 0,0 h -200 c -2.209,0 -4,1.791 -4,4 v 44 c 0,2.209 1.791,4 4,4 H 0 c 2.209,0 4,-1.791 4,-4 V 4 C 4,1.791 2.209,0 0,0" /></g><g
           transform="translate(128,20)"
           id="g44"><path
             id="path46"
             style="fill:#333333;fill-opacity:1;fill-rule:nonzero;stroke:none"
             d="m 0,0 v 0 c -6.627,0 -12,5.373 -12,12 v 36 c 0,6.627 5.373,12 12,12 6.627,0 12,-5.373 12,-12 V 12 C 12,5.373 6.627,0 0,0" /></g><g
           transform="translate(176,118)"
           id="g48"><path
             id="path50"
             style="fill:#333333;fill-opacity:1;fill-rule:nonzero;stroke:none"
             d="m 0,0 c 0,-3.313 -2.687,-6 -6,-6 -3.313,0 -6,2.687 -6,6 0,3.313 2.687,6 6,6 3.313,0 6,-2.687 6,-6" /></g><g
           transform="translate(128,104)"
           id="g52"><path
             id="path54"
             style="fill:#262626;fill-opacity:1;fill-rule:nonzero;stroke:none"
             d="M 0,0 C -13.255,0 -24,10.745 -24,24 -24,37.255 -13.255,48 0,48 13.255,48 24,37.255 24,24 24,10.745 13.255,0 0,0 M 0,56 C -17.673,56 -32,41.673 -32,24 -32,6.327 -17.673,-8 0,-8 17.673,-8 32,6.327 32,24 32,41.673 17.673,56 0,56" /></g><g
           transform="translate(128,162)"
           id="g56"><path
             id="path58"
             style="fill:#333333;fill-opacity:1;fill-rule:nonzero;stroke:none"
             d="m 0,0 c -18.778,0 -34,-15.222 -34,-34 0,-18.777 15.222,-34 34,-34 18.777,0 34,15.223 34,34 C 34,-15.222 18.777,0 0,0 m 0,-4 c 16.542,0 30,-13.458 30,-30 0,-16.542 -13.458,-30 -30,-30 -16.542,0 -30,13.458 -30,30 0,16.542 13.458,30 30,30" /></g></g></g></g></svg>
